X:1
T:Colonel W. Marshall of the 79th Regiment of Foot
T:Colonel W. Marshall of the 79th Regiment of Foot
T:William Marshall
C:William Marshall
%%score { ( 1 2 ) ( 3 4 ) }
L:1/8
M:4/4
K:C
V:1 treble 
V:2 treble 
V:3 bass 
V:4 bass 
V:1
"^SLOW" E/F/ | TG>A G<E TG>A G<E | Tc>d e/d/c/B/ A/G/F/E/ (DE/F/) | TG>A G<E TG>A G<f | %4
 e<c Tg>e{e} d2 c || E/F/ | Tg>a g<e g>a g<e | (Tfg/a/) (a/g/f/e/) fd d (e/f/) | Tg>a g<e c>d c>G | %9
 (A<a) (Tg>f){f} e2 de/f/ | Tg>a g<e g>a g<e | (Tfg/a/) (a/g/f/e/) fd d(e/f/) | %12
 Tc>d c>G A>B (B/A/)(G/F/) | E>G [Gc]/e/[Gg]/e/{e} [Fd]2{cedc} [Ec] |] %14
V:2
 x | E2 x2 E2 x2 | G2 G2 x4 | E2 x2 E2 x2 | G2 G2 G2 G || x | x8 | x8 | x8 | x8 | x8 | x8 | x8 | %13
 x7 |] %14
V:3
 z | c/g/c'/g/ c/g/c'/g/ c/g/c'/g/ c/g/c'/g/ | e/g/c'/g/ c/g/c'/g/ f/g/a/^f/ g/=f/e/d/ | %3
 c/g/c'/g/ c/g/c'/g/ c/g/c'/g/ b/g/a/b/ | c'/b/c'/d'/ e'/c'/d'/e'/ g/b/d'/f'/ [c'e'] || z | %6
 [c'e']/g/[c'e']/g/ [c'e']/g/[c'e']/g/ [c'e']/g/[c'e']/g/ [c'e']/g/[c'e']/_b/ | %7
 a/c'/f'/c'/ f/c'/f'/c'/ g/b/d'/b/ f/b/d'/b/ | e/g/c'/g/ c/g/c'/g/ e/g/c'/g/ c/g/c'/g/ | %9
 f/a/c'/a/ f/a/d'/a/ g/c'/e'/c/ [gbd']2 | %10
 [c'e']/g/[c'e']/g/ [c'e']/g/[c'e']/g/ [c'e']/g/[c'e']/g/ [c'e']/g/[c'e']/_b/ | %11
 a/c'/f'/c'/ f/a/d'/a/ f/g/b/g/ f/g/b/g/ | e/g/c'/g/ c/g/c'/g/ f>a g/f/e/d/ | %13
 [Cc]2 [Ee][Cc] [Gg]2 [Cc] |] %14
V:4
 x | x8 | x8 | x8 | x7 || x | x8 | x8 | x8 | x8 | x8 | x8 | x4 C,4 | x7 |] %14

